build/communication/XSolid.svg

<svg xmlns="http://www.w3.org/2000/svg" fill="none" viewBox="0 0 24 24" focusable="false"><path d="M0 0H24V24H0z"/><path fill="#74767B" fill-rule="evenodd" d="M12 3C7.02954 3 3 7.02945 3 12C3 16.9706 7.02954 21 12 21C16.9705 21 21 16.9706 21 12C21 7.02945 16.9705 3 12 3ZM16.6741 7L12.9514 11.2343L17 17L14.0222 17L11.2957 13.1174L7.88232 17L7 17L10.9041 12.5597L7 7L9.97778 7L12.5596 10.6766L15.792 7L16.6741 7ZM11.3474 12.055L11.7432 12.6086L14.4373 16.3797L15.7922 16.3797L12.4907 11.7586L12.0952 11.205L9.55518 7.64984L8.2002 7.64984L11.3474 12.055Z"/></svg>

<svg xmlns="http://www.w3.org/2000/svg" fill="none" viewBox="0 0 24 24" focusable="false"><path fill="none" d="M0 0h24v24H0z"/><path fill="#74767B" fill-rule="evenodd" d="M12 3c-4.98 0-9 4.02-9 9 0 4.97 4.02 9 9 9a9 9 0 0 0 9-9c0-4.98-4.03-9-9-9m4.67 4-3.72 4.23L17 17h-2.98l-2.73-3.89L7.88 17H7l3.9-4.45L7 7h2.97l2.58 3.67L15.79 7zm-5.33 5.05.4.55 2.69 3.77h1.36l-3.3-4.62-.4-.55-2.54-3.56H8.2z"/></svg>
